icon/pk/github-one.svg

<svg viewBox="0 0 48 48" fill="none" xmlns="http://www.w3.org/2000/svg" height="1em" width="1em">
  <path d="M29.3444 30.4765C31.7481 29.977 33.9292 29.1108 35.6247 27.8391C38.5202 25.6676 40 22.3136 40 18.9999C40 16.6752 39.1187 14.505 37.5929 12.6668C36.7427 11.6425 39.2295 3.99989 37.02 5.02919C34.8105 6.05848 31.5708 8.33679 29.8726 7.83398C28.0545 7.29565 26.0733 6.99989 24 6.99989C22.1992 6.99989 20.4679 7.22301 18.8526 7.6344C16.5046 8.23237 14.2591 5.99989 12 5.02919C9.74086 4.05848 10.9736 11.9632 10.3026 12.7944C8.84119 14.6051 8 16.7288 8 18.9999C8 22.3136 9.79086 25.6676 12.6863 27.8391C14.6151 29.2857 17.034 30.2076 19.7401 30.6619" stroke="black" stroke-width="4" stroke-linecap="round"/>
  <path d="M19.7397 30.6619C18.5812 31.937 18.002 33.1478 18.002 34.2944C18.002 35.441 18.002 38.3464 18.002 43.0106" stroke="black" stroke-width="4" stroke-linecap="round"/>
  <path d="M29.3446 30.4766C30.4423 31.9174 30.9912 33.211 30.9912 34.3576C30.9912 35.5042 30.9912 38.3885 30.9912 43.0107" stroke="black" stroke-width="4" stroke-linecap="round"/>
  <path d="M6 31.2155C6.89887 31.3254 7.56554 31.7387 8 32.4554C8.65169 33.5303 11.0742 37.518 13.8251 37.518C15.6591 37.518 17.0515 37.518 18.0024 37.518" stroke="black" stroke-width="4" stroke-linecap="round"/>
</svg>

<svg width="48" height="48" fill="none" xmlns="http://www.w3.org/2000/svg"><path d="M29.344 30.477c2.404-.5 4.585-1.366 6.28-2.638C38.52 25.668 40 22.314 40 19c0-2.324-.881-4.494-2.407-6.332-.85-1.024 1.636-8.667-.573-7.638-2.21 1.03-5.45 3.308-7.147 2.805A20.712 20.712 0 0 0 24 7c-1.8 0-3.532.223-5.147.634C16.505 8.232 14.259 6 12 5.03c-2.26-.97-1.026 6.934-1.697 7.765C8.84 14.605 8 16.73 8 19c0 3.314 1.79 6.668 4.686 8.84 1.93 1.446 4.348 2.368 7.054 2.822M19.74 30.662c-1.159 1.275-1.738 2.486-1.738 3.632v8.717M29.345 30.477c1.097 1.44 1.646 2.734 1.646 3.88v8.654M6 31.215c.899.11 1.566.524 2 1.24.652 1.075 3.074 5.063 5.825 5.063h4.177" stroke="#000" stroke-width="4" stroke-linecap="round"/></svg>
